svg/fluentui-system-icons/ic_fluent_headphones_32_filled.svg

<svg width="32" height="32" viewBox="0 0 32 32" fill="none" xmlns="http://www.w3.org/2000/svg">
<path d="M15.5 4C9.14873 4 4 9.14873 4 15.5V18H11C11.5523 18 12 18.4477 12 19V29C12 29.5523 11.5523 30 11 30H6.5C4.01472 30 2 27.9853 2 25.5V15.5C2 8.04416 8.04416 2 15.5 2C22.9558 2 29 8.04416 29 15.5V25.5C29 27.9853 26.9853 30 24.5 30H20C19.4477 30 19 29.5523 19 29V19C19 18.4477 19.4477 18 20 18H27V15.5C27 9.14873 21.8513 4 15.5 4Z" fill="#212121"/>
</svg>

<svg xmlns="http://www.w3.org/2000/svg" width="32" height="32"><path d="M15.5 4C9.149 4 4 9.149 4 15.5V18h7a1 1 0 0 1 1 1v10a1 1 0 0 1-1 1H6.5A4.5 4.5 0 0 1 2 25.5v-10C2 8.044 8.044 2 15.5 2S29 8.044 29 15.5v10a4.5 4.5 0 0 1-4.5 4.5H20a1 1 0 0 1-1-1V19a1 1 0 0 1 1-1h7v-2.5C27 9.149 21.851 4 15.5 4Z"/></svg>
